; generated by Slic3r 1.31.6-prusa3d-linux64 on 2017-01-25 at 22:25:54

; external perimeters extrusion width = 0.40mm
; perimeters extrusion width = 0.40mm
; infill extrusion width = 0.40mm
; solid infill extrusion width = 0.40mm
; top infill extrusion width = 0.40mm

M190 S70 ; set bed temperature and wait for it to be reached
M104 S235 ; set temperature
G28 ; home all axes
G1 Z5 F5000 ; lift nozzle

M109 S235 ; set temperature and wait for it to be reached
G21 ; set units to millimeters
G90 ; use absolute coordinates
M82 ; use absolute distances for extrusion
G92 E0
G1 Z0.300 F7800.000
G1 E-2.00000 F2400.00000
G92 E0
G1 X12.974 Y-12.212 F7800.000
G1 E2.00000 F2400.00000
G1 F1200
G1 X13.707 Y-10.000 E2.06849
G1 X13.707 Y10.000 E2.65625
G1 X13.312 Y11.664 E2.70651
G1 X12.212 Y12.974 E2.75678
G1 X10.000 Y13.707 E2.82527
G1 X-10.000 Y13.707 E3.41302
G1 X-11.664 Y13.312 E3.46329
G1 X-12.974 Y12.212 E3.51355
G1 X-13.707 Y10.000 E3.58204
G1 X-13.707 Y-10.000 E4.16980
G1 X-13.312 Y-11.664 E4.22006
G1 X-12.212 Y-12.974 E4.27033
G1 X-10.000 Y-13.707 E4.33882
G1 X10.000 Y-13.707 E4.92658
G1 X11.664 Y-13.312 E4.97684
G1 X12.928 Y-12.251 E5.02534
G1 X12.848 Y-11.984 F7800.000
G1 F1200
G1 X13.471 Y-10.000 E5.08645
G1 X13.471 Y10.000 E5.67420
G1 X13.077 Y11.607 E5.72282
G1 X11.984 Y12.848 E5.77144
G1 X10.000 Y13.471 E5.83255
G1 X-10.000 Y13.471 E6.42030
G1 X-11.607 Y13.077 E6.46892
G1 X-12.848 Y11.984 E6.51754
G1 X-13.471 Y10.000 E6.57864
G1 X-13.471 Y-10.000 E7.16640
G1 X-13.077 Y-11.607 E7.21502
G1 X-11.984 Y-12.848 E7.26364
G1 X-10.000 Y-13.471 E7.32474
G1 X10.000 Y-13.471 E7.91250
G1 X11.607 Y-13.077 E7.96112
G1 X12.803 Y-12.023 E8.00797
G1 X12.718 Y-11.756 F7800.000
G1 F1200
G1 X13.236 Y-10.000 E8.06178
G1 X13.236 Y10.000 E8.64954
G1 X12.842 Y11.547 E8.69645
G1 X11.756 Y12.718 E8.74337
G1 X10.000 Y13.236 E8.79718
G1 X-10.000 Y13.236 E9.38493
G1 X-11.547 Y12.842 E9.43185
G1 X-12.718 Y11.756 E9.47876
G1 X-13.236 Y10.000 E9.53257
G1 X-13.236 Y-10.000 E10.12033
G1 X-12.842 Y-11.547 E10.16724
G1 X-11.756 Y-12.718 E10.21415
G1 X-10.000 Y-13.236 E10.26796
G1 X10.000 Y-13.236 E10.85572
G1 X11.547 Y-12.842 E10.90263
G1 X12.674 Y-11.797 E10.94779
G1 X12.238 Y-10.927 F7800.000
G1 F1200
G1 X12.238 Y10.927 E11.59004
G1 X10.927 Y12.238 E11.64453
G1 X-10.927 Y12.238 E12.28678
G1 X-12.238 Y10.927 E12.34127
G1 X-12.238 Y-10.927 E12.98352
G1 X-10.927 Y-12.238 E13.03802
G1 X10.927 Y-12.238 E13.68027
G1 X12.196 Y-10.970 E13.73300
G1 X12.003 Y-10.830 F7800.000
G1 F1200
G1 X12.003 Y10.830 E14.36951
G1 X10.830 Y12.003 E14.41827
G1 X-10.830 Y12.003 E15.05479
G1 X-12.003 Y10.830 E15.10354
G1 X-12.003 Y-10.830 E15.74006
G1 X-10.830 Y-12.003 E15.78882
G1 X10.830 Y-12.003 E16.42533
G1 X11.960 Y-10.872 E16.47233
G1 X11.767 Y-10.732 F7800.000
G1 F1200
G1 X11.767 Y10.732 E17.10310
G1 X10.732 Y11.767 E17.14612
G1 X-10.732 Y11.767 E17.77690
G1 X-11.767 Y10.732 E17.81992
G1 X-11.767 Y-10.732 E18.45070
G1 X-10.732 Y-11.767 E18.49372
G1 X10.732 Y-11.767 E19.12450
G1 X11.725 Y-10.774 E19.16576
G1 X11.532 Y-10.634 F7800.000
G1 F1200
G1 X11.532 Y10.634 E19.79080
G1 X10.634 Y11.532 E19.82809
G1 X-10.634 Y11.532 E20.45313
G1 X-11.532 Y10.634 E20.49041
G1 X-11.532 Y-10.634 E21.11545
G1 X-10.634 Y-11.532 E21.15274
G1 X10.634 Y-11.532 E21.77778
G1 X11.489 Y-10.677 E21.81330
G1 X11.296 Y-10.537 F7800.000
G1 F1200
G1 X11.296 Y10.537 E22.43261
G1 X10.537 Y11.296 E22.46416
G1 X-10.537 Y11.296 E23.08346
G1 X-11.296 Y10.537 E23.11501
G1 X-11.296 Y-10.537 E23.73432
G1 X-10.537 Y-11.296 E23.76587
G1 X10.537 Y-11.296 E24.38517
G1 X11.253 Y-10.579 E24.41496
G1 X11.060 Y-10.439 F7800.000
G1 F1200
G1 X11.060 Y10.439 E25.02853
G1 X10.439 Y11.060 E25.05434
G1 X-10.439 Y11.060 E25.66791
G1 X-11.060 Y10.439 E25.69372
G1 X-11.060 Y-10.439 E26.30729
G1 X-10.439 Y-11.060 E26.33310
G1 X10.439 Y-11.060 E26.94667
G1 X11.018 Y-10.482 E26.97072
G1 X10.825 Y-10.342 F7800.000
G1 F1200
G1 X10.825 Y10.342 E27.57855
G1 X10.342 Y10.825 E27.59863
G1 X-10.342 Y10.825 E28.20646
G1 X-10.825 Y10.342 E28.22654
G1 X-10.825 Y-10.342 E28.83437
G1 X-10.342 Y-10.825 E28.85445
G1 X10.342 Y-10.825 E29.46228
G1 X10.782 Y-10.384 E29.48059
G1 X10.589 Y-10.244 F7800.000
G1 F1200
G1 X10.589 Y10.244 E30.08269
G1 X10.244 Y10.589 E30.09703
G1 X-10.244 Y10.589 E30.69913
G1 X-10.589 Y10.244 E30.71347
G1 X-10.589 Y-10.244 E31.31556
G1 X-10.244 Y-10.589 E31.32990
G1 X10.244 Y-10.589 E31.93200
G1 X10.547 Y-10.286 E31.94458
G1 X10.353 Y-10.146 F7800.000
G1 F1200
G1 X10.353 Y10.146 E32.54094
G1 X10.146 Y10.353 E32.54954
G1 X-10.146 Y10.353 E33.14590
G1 X-10.353 Y10.146 E33.15451
G1 X-10.353 Y-10.146 E33.75087
G1 X-10.146 Y-10.353 E33.75947
G1 X10.146 Y-10.353 E34.35583
G1 X10.311 Y-10.189 E34.36267
G1 X10.118 Y-10.049 F7800.000
G1 F1200
G1 X10.118 Y10.049 E34.95329
G1 X10.049 Y10.118 E34.95616
G1 X-10.049 Y10.118 E35.54678
G1 X-10.118 Y10.049 E35.54965
G1 X-10.118 Y-10.049 E36.14028
G1 X-10.049 Y-10.118 E36.14314
G1 X10.049 Y-10.118 E36.73377
G1 X10.075 Y-10.091 E36.73487
G1 X9.850 Y-9.850 F7800.000
G1 F1200
G1 X9.850 Y9.850 E37.31381
G1 X-9.850 Y9.850 E37.89275
G1 X-9.850 Y-9.850 E38.47169
G1 X9.790 Y-9.850 E39.04886
G1 X9.746 Y-9.464 F7800.000
G1 X9.614 Y-9.614 F7800.000
G1 F1200
G1 X9.614 Y9.614 E39.61395
G1 X-9.614 Y9.614 E40.17904
G1 X-9.614 Y-9.614 E40.74413
G1 X9.554 Y-9.614 E41.30746
G1 X9.379 Y-9.379 F7800.000
G1 F1200
G1 X9.379 Y9.379 E41.85870
G1 X-9.379 Y9.379 E42.40994
G1 X-9.379 Y-9.379 E42.96119
G1 X9.319 Y-9.379 E43.51066
G1 X9.296 Y-8.817 F7800.000
G1 F1200
G1 X8.923 Y-9.190 E43.52630
G1 X8.587 Y-9.190 E43.53622
G1 X9.190 Y-8.587 E43.56145
G1 X9.190 Y-8.252 E43.57137
G1 X8.252 Y-9.190 E43.61063
G1 X7.916 Y-9.190 E43.62055
G1 X9.190 Y-7.916 E43.67385
G1 X9.190 Y-7.581 E43.68377
G1 X7.581 Y-9.190 E43.75110
G1 X7.246 Y-9.190 E43.76102
G1 X9.190 Y-7.246 E43.84238
G1 X9.190 Y-6.910 E43.85230
G1 X6.910 Y-9.190 E43.94769
G1 X6.575 Y-9.190 E43.95762
G1 X9.190 Y-6.575 E44.06704
G1 X9.190 Y-6.239 E44.07697
G1 X6.239 Y-9.190 E44.20042
G1 X5.904 Y-9.190 E44.21035
G1 X9.190 Y-5.904 E44.34784
G1 X9.190 Y-5.568 E44.35776
G1 X5.568 Y-9.190 E44.50929
G1 X5.233 Y-9.190 E44.51921
G1 X9.190 Y-5.233 E44.68477
G1 X9.190 Y-4.898 E44.69469
G1 X4.898 Y-9.190 E44.87428
G1 X4.562 Y-9.190 E44.88420
G1 X9.190 Y-4.562 E45.07782
G1 X9.190 Y-4.227 E45.08775
G1 X4.227 Y-9.190 E45.29540
G1 X3.891 Y-9.190 E45.30533
G1 X9.190 Y-3.891 E45.52702
G1 X9.190 Y-3.556 E45.53694
G1 X3.556 Y-9.190 E45.77266
G1 X3.220 Y-9.190 E45.78258
G1 X9.190 Y-3.220 E46.03234
G1 X9.190 Y-2.885 E46.04226
G1 X2.885 Y-9.190 E46.30605
G1 X2.550 Y-9.190 E46.31597
G1 X9.190 Y-2.550 E46.59379
G1 X9.190 Y-2.214 E46.60371
G1 X2.214 Y-9.190 E46.89557
G1 X1.879 Y-9.190 E46.90549
G1 X9.190 Y-1.879 E47.21138
G1 X9.190 Y-1.543 E47.22130
G1 X1.543 Y-9.190 E47.54122
G1 X1.208 Y-9.190 E47.55114
G1 X9.190 Y-1.208 E47.88510
G1 X9.190 Y-0.872 E47.89502
G1 X0.872 Y-9.190 E48.24300
G1 X0.537 Y-9.190 E48.25293
G1 X9.190 Y-0.537 E48.61495
G1 X9.190 Y-0.202 E48.62487
G1 X0.202 Y-9.190 E49.00092
G1 X-0.134 Y-9.190 E49.01084
G1 X9.190 Y0.134 E49.40093
G1 X9.190 Y0.469 E49.41085
G1 X-0.469 Y-9.190 E49.81497
G1 X-0.805 Y-9.190 E49.82489
G1 X9.190 Y0.805 E50.24304
G1 X9.190 Y1.140 E50.25296
G1 X-1.140 Y-9.190 E50.68515
G1 X-1.476 Y-9.190 E50.69507
G1 X9.190 Y1.476 E51.14129
G1 X9.190 Y1.811 E51.15121
G1 X-1.811 Y-9.190 E51.61146
G1 X-2.146 Y-9.190 E51.62138
G1 X9.190 Y2.146 E52.09566
G1 X9.190 Y2.482 E52.10559
G1 X-2.482 Y-9.190 E52.59390
G1 X-2.817 Y-9.190 E52.60382
G1 X9.190 Y2.817 E53.10617
G1 X9.190 Y3.153 E53.11609
G1 X-3.153 Y-9.190 E53.63247
G1 X-3.488 Y-9.190 E53.64240
G1 X9.190 Y3.488 E54.17281
G1 X9.190 Y3.823 E54.18273
G1 X-3.823 Y-9.190 E54.72718
G1 X-4.159 Y-9.190 E54.73710
G1 X9.190 Y4.159 E55.29558
G1 X9.190 Y4.494 E55.30551
G1 X-4.494 Y-9.190 E55.87802
G1 X-4.830 Y-9.190 E55.88794
G1 X9.190 Y4.830 E56.47449
G1 X9.190 Y5.165 E56.48441
G1 X-5.165 Y-9.190 E57.08499
G1 X-5.501 Y-9.190 E57.09491
G1 X9.190 Y5.501 E57.70952
G1 X9.190 Y5.836 E57.71945
G1 X-5.836 Y-9.190 E58.34809
G1 X-6.171 Y-9.190 E58.35801
G1 X9.190 Y6.171 E59.00069
G1 X9.190 Y6.507 E59.01061
G1 X-6.507 Y-9.190 E59.66732
G1 X-6.842 Y-9.190 E59.67725
G1 X9.190 Y6.842 E60.34799
G1 X9.190 Y7.178 E60.35791
G1 X-7.178 Y-9.190 E61.04269
G1 X-7.513 Y-9.190 E61.05261
G1 X9.190 Y7.513 E61.75142
G1 X9.190 Y7.849 E61.76134
G1 X-7.849 Y-9.190 E62.47419
G1 X-8.184 Y-9.190 E62.48411
G1 X9.190 Y8.184 E63.21098
G1 X9.190 Y8.519 E63.22091
G1 X-8.519 Y-9.190 E63.96181
G1 X-8.855 Y-9.190 E63.97174
G1 X9.190 Y8.855 E64.72668
G1 X9.190 Y9.190 E64.73660
G1 X-9.190 Y-9.190 E65.50557
G1 X-9.190 Y-8.855 E65.51549
G1 X8.855 Y9.190 E66.27043
G1 X8.519 Y9.190 E66.28036
G1 X-9.190 Y-8.519 E67.02126
G1 X-9.190 Y-8.184 E67.03119
G1 X8.184 Y9.190 E67.75806
G1 X7.849 Y9.190 E67.76798
G1 X-9.190 Y-7.849 E68.48082
G1 X-9.190 Y-7.513 E68.49075
G1 X7.513 Y9.190 E69.18955
G1 X7.178 Y9.190 E69.19948
G1 X-9.190 Y-7.178 E69.88425
G1 X-9.190 Y-6.842 E69.89417
G1 X6.842 Y9.190 E70.56491
G1 X6.507 Y9.190 E70.57484
G1 X-9.190 Y-6.507 E71.23155
G1 X-9.190 Y-6.171 E71.24147
G1 X6.171 Y9.190 E71.88414
G1 X5.836 Y9.190 E71.89407
G1 X-9.190 Y-5.836 E72.52271
G1 X-9.190 Y-5.501 E72.53263
G1 X5.501 Y9.190 E73.14724
G1 X5.165 Y9.190 E73.15717
G1 X-9.190 Y-5.165 E73.75774
G1 X-9.190 Y-4.830 E73.76767
G1 X4.830 Y9.190 E74.35421
G1 X4.494 Y9.190 E74.36413
G1 X-9.190 Y-4.494 E74.93664
G1 X-9.190 Y-4.159 E74.94657
G1 X4.159 Y9.190 E75.50504
G1 X3.823 Y9.190 E75.51497
G1 X-9.190 Y-3.823 E76.05941
G1 X-9.190 Y-3.488 E76.06934
G1 X3.488 Y9.190 E76.59975
G1 X3.153 Y9.190 E76.60967
G1 X-9.190 Y-3.153 E77.12605
G1 X-9.190 Y-2.817 E77.13597
G1 X2.817 Y9.190 E77.63832
G1 X2.482 Y9.190 E77.64824
G1 X-9.190 Y-2.482 E78.13655
G1 X-9.190 Y-2.146 E78.14648
G1 X2.146 Y9.190 E78.62076
G1 X1.811 Y9.190 E78.63068
G1 X-9.190 Y-1.811 E79.09093
G1 X-9.190 Y-1.475 E79.10085
G1 X1.475 Y9.190 E79.54707
G1 X1.140 Y9.190 E79.55699
G1 X-9.190 Y-1.140 E79.98917
G1 X-9.190 Y-0.805 E79.99909
G1 X0.805 Y9.190 E80.41724
G1 X0.469 Y9.190 E80.42716
G1 X-9.190 Y-0.469 E80.83128
G1 X-9.190 Y-0.134 E80.84120
G1 X0.134 Y9.190 E81.23129
G1 X-0.202 Y9.190 E81.24121
G1 X-9.190 Y0.202 E81.61726
G1 X-9.190 Y0.537 E81.62718
G1 X-0.537 Y9.190 E81.98920
G1 X-0.873 Y9.190 E81.99912
G1 X-9.190 Y0.873 E82.34710
G1 X-9.190 Y1.208 E82.35703
G1 X-1.208 Y9.190 E82.69098
G1 X-1.543 Y9.190 E82.70090
G1 X-9.190 Y1.543 E83.02082
G1 X-9.190 Y1.879 E83.03074
G1 X-1.879 Y9.190 E83.33663
G1 X-2.214 Y9.190 E83.34655
G1 X-9.190 Y2.214 E83.63840
G1 X-9.190 Y2.550 E83.64832
G1 X-2.550 Y9.190 E83.92614
G1 X-2.885 Y9.190 E83.93607
G1 X-9.190 Y2.885 E84.19985
G1 X-9.190 Y3.220 E84.20978
G1 X-3.220 Y9.190 E84.45953
G1 X-3.556 Y9.190 E84.46945
G1 X-9.190 Y3.556 E84.70517
G1 X-9.190 Y3.891 E84.71510
G1 X-3.891 Y9.190 E84.93678
G1 X-4.227 Y9.190 E84.94671
G1 X-9.190 Y4.227 E85.15436
G1 X-9.190 Y4.562 E85.16428
G1 X-4.562 Y9.190 E85.35790
G1 X-4.898 Y9.190 E85.36783
G1 X-9.190 Y4.898 E85.54742
G1 X-9.190 Y5.233 E85.55734
G1 X-5.233 Y9.190 E85.72289
G1 X-5.568 Y9.190 E85.73282
G1 X-9.190 Y5.568 E85.88434
G1 X-9.190 Y5.904 E85.89426
G1 X-5.904 Y9.190 E86.03175
G1 X-6.239 Y9.190 E86.04167
G1 X-9.190 Y6.239 E86.16513
G1 X-9.190 Y6.575 E86.17505
G1 X-6.575 Y9.190 E86.28448
G1 X-6.910 Y9.190 E86.29440
G1 X-9.190 Y6.910 E86.38979
G1 X-9.190 Y7.246 E86.39971
G1 X-7.246 Y9.190 E86.48107
G1 X-7.581 Y9.190 E86.49100
G1 X-9.190 Y7.581 E86.55832
G1 X-9.190 Y7.916 E86.56824
G1 X-7.916 Y9.190 E86.62154
G1 X-8.252 Y9.190 E86.63146
G1 X-9.190 Y8.252 E86.67072
G1 X-9.190 Y8.587 E86.68064
G1 X-8.587 Y9.190 E86.70587
G1 X-8.923 Y9.190 E86.71579
G1 X-9.296 Y8.817 E86.73142
G1 Z0.500 F7800.000
G1 X-9.086 Y9.086 F7800.000
G1 F2400
G1 X-9.086 Y-9.086 E87.27096
G1 X9.086 Y-9.086 E87.81050
G1 X9.086 Y9.086 E88.35004
G1 X-9.026 Y9.086 E88.88780
G1 X-9.443 Y9.443 F7800.000
G1 F2400
G1 X-9.443 Y-9.443 E89.44855
G1 X9.443 Y-9.443 E90.00929
G1 X9.443 Y9.443 E90.57004
G1 X-9.383 Y9.443 E91.12900
G1 X-9.800 Y9.800 F7800.000
G1 F1680
G1 X-9.800 Y-9.800 E91.71095
G1 X9.800 Y-9.800 E92.29290
G1 X9.800 Y9.800 E92.87485
G1 X-9.740 Y9.800 E93.45502
G1 X-9.696 Y9.414 F7800.000
G1 X8.238 Y8.961 F7800.000
G1 F2400
G1 X8.800 Y8.398 E93.47867
G1 X8.800 Y7.893 E93.49372
G1 X7.893 Y8.800 E93.53189
G1 X7.387 Y8.800 E93.54694
G1 X8.800 Y7.387 E93.60639
G1 X8.800 Y6.881 E93.62143
G1 X6.881 Y8.800 E93.70216
G1 X6.375 Y8.800 E93.71720
G1 X8.800 Y6.375 E93.81921
G1 X8.800 Y5.869 E93.83425
G1 X5.869 Y8.800 E93.95753
G1 X5.363 Y8.800 E93.97258
G1 X8.800 Y5.363 E94.11714
G1 X8.800 Y4.858 E94.13218
G1 X4.858 Y8.800 E94.29801
G1 X4.352 Y8.800 E94.31306
G1 X8.800 Y4.352 E94.50017
G1 X8.800 Y3.846 E94.51521
G1 X3.846 Y8.800 E94.72360
G1 X3.340 Y8.800 E94.73864
G1 X8.800 Y3.340 E94.96830
G1 X8.800 Y2.834 E94.98335
G1 X2.834 Y8.800 E95.23429
G1 X2.328 Y8.800 E95.24933
G1 X8.800 Y2.328 E95.52155
G1 X8.800 Y1.822 E95.53659
G1 X1.822 Y8.800 E95.83008
G1 X1.317 Y8.800 E95.84513
G1 X8.800 Y1.317 E96.15990
G1 X8.800 Y0.811 E96.17494
G1 X0.811 Y8.800 E96.51099
G1 X0.305 Y8.800 E96.52603
G1 X8.800 Y0.305 E96.88335
G1 X8.800 Y-0.201 E96.89839
G1 X-0.201 Y8.800 E97.27699
G1 X-0.707 Y8.800 E97.29204
G1 X8.800 Y-0.707 E97.69191
G1 X8.800 Y-1.213 E97.70695
G1 X-1.213 Y8.800 E98.12810
G1 X-1.718 Y8.800 E98.14315
G1 X8.800 Y-1.718 E98.58558
G1 X8.800 Y-2.224 E98.60062
G1 X-2.224 Y8.800 E99.06432
G1 X-2.730 Y8.800 E99.07937
G1 X8.800 Y-2.730 E99.56435
G1 X8.800 Y-3.236 E99.57939
G1 X-3.236 Y8.800 E100.08565
G1 X-3.742 Y8.800 E100.10069
G1 X8.800 Y-3.742 E100.62822
G1 X8.800 Y-4.248 E100.64327
G1 X-4.248 Y8.800 E101.19208
G1 X-4.754 Y8.800 E101.20712
G1 X8.800 Y-4.754 E101.77720
G1 X8.800 Y-5.259 E101.79225
G1 X-5.259 Y8.800 E102.38361
G1 X-5.765 Y8.800 E102.39865
G1 X8.800 Y-5.765 E103.01129
G1 X8.800 Y-6.271 E103.02634
G1 X-6.271 Y8.800 E103.66025
G1 X-6.777 Y8.800 E103.67530
G1 X8.800 Y-6.777 E104.33049
G1 X8.800 Y-7.283 E104.34553
G1 X-7.283 Y8.800 E105.02200
G1 X-7.789 Y8.800 E105.03704
G1 X8.800 Y-7.789 E105.73478
G1 X8.800 Y-8.294 E105.74983
G1 X-8.294 Y8.800 E106.46885
G1 X-8.800 Y8.800 E106.48389
G1 X8.800 Y-8.800 E107.22418
G1 X8.294 Y-8.800 E107.23922
G1 X-8.800 Y8.294 E107.95824
G1 X-8.800 Y7.788 E107.97328
G1 X7.788 Y-8.800 E108.67102
G1 X7.283 Y-8.800 E108.68606
G1 X-8.800 Y7.283 E109.36253
G1 X-8.800 Y6.777 E109.37757
G1 X6.777 Y-8.800 E110.03275
G1 X6.271 Y-8.800 E110.04780
G1 X-8.800 Y6.271 E110.68171
G1 X-8.800 Y5.765 E110.69675
G1 X5.765 Y-8.800 E111.30938
G1 X5.259 Y-8.800 E111.32443
G1 X-8.800 Y5.259 E111.91578
G1 X-8.800 Y4.753 E111.93083
G1 X4.753 Y-8.800 E112.50091
G1 X4.248 Y-8.800 E112.51595
G1 X-8.800 Y4.248 E113.06475
G1 X-8.800 Y3.742 E113.07980
G1 X3.742 Y-8.800 E113.60732
G1 X3.236 Y-8.800 E113.62237
G1 X-8.800 Y3.236 E114.12862
G1 X-8.800 Y2.730 E114.14366
G1 X2.730 Y-8.800 E114.62864
G1 X2.224 Y-8.800 E114.64368
G1 X-8.800 Y2.224 E115.10738
G1 X-8.800 Y1.718 E115.12242
G1 X1.718 Y-8.800 E115.56484
G1 X1.212 Y-8.800 E115.57989
G1 X-8.800 Y1.212 E116.00103
G1 X-8.800 Y0.707 E116.01608
G1 X0.707 Y-8.800 E116.41595
G1 X0.201 Y-8.800 E116.43099
G1 X-8.800 Y0.201 E116.80958
G1 X-8.800 Y-0.305 E116.82463
G1 X-0.305 Y-8.800 E117.18194
G1 X-0.811 Y-8.800 E117.19699
G1 X-8.800 Y-0.811 E117.53302
G1 X-8.800 Y-1.317 E117.54807
G1 X-1.317 Y-8.800 E117.86283
G1 X-1.823 Y-8.800 E117.87788
G1 X-8.800 Y-1.823 E118.17136
G1 X-8.800 Y-2.328 E118.18641
G1 X-2.328 Y-8.800 E118.45862
G1 X-2.834 Y-8.800 E118.47366
G1 X-8.800 Y-2.834 E118.72459
G1 X-8.800 Y-3.340 E118.73964
G1 X-3.340 Y-8.800 E118.96929
G1 X-3.846 Y-8.800 E118.98434
G1 X-8.800 Y-3.846 E119.19272
G1 X-8.800 Y-4.352 E119.20776
G1 X-4.352 Y-8.800 E119.39487
G1 X-4.858 Y-8.800 E119.40991
G1 X-8.800 Y-4.858 E119.57574
G1 X-8.800 Y-5.364 E119.59078
G1 X-5.364 Y-8.800 E119.73534
G1 X-5.869 Y-8.800 E119.75038
G1 X-8.800 Y-5.869 E119.87366
G1 X-8.800 Y-6.375 E119.88870
G1 X-6.375 Y-8.800 E119.99070
G1 X-6.881 Y-8.800 E120.00574
G1 X-8.800 Y-6.881 E120.08646
G1 X-8.800 Y-7.387 E120.10151
G1 X-7.387 Y-8.800 E120.16095
G1 X-7.893 Y-8.800 E120.17600
G1 X-8.800 Y-7.893 E120.21417
G1 X-8.800 Y-8.399 E120.22921
